static/belza-digital-logo-v.svg

<svg xmlns="http://www.w3.org/2000/svg" viewBox="0, 0, 1500, 1008" fill="#fff"><g fill-opacity=".5"><path d="M795.64 445.056h-129.6v.144h-86.254l129.173 129.173c22.666 22.665 59.414 22.665 82.08-.001l225.72-225.72c22.666-22.666 22.666-59.414 0-82.08l-10.26-10.26h.001L811.56 61.372h-.001l-20.52-20.52c-9.893-9.406-21.819-15.291-35.476-16.734-3.709 0-7.428-.266-11.127 0-13.389.964-25.971 7.492-35.477 16.734l-10.519 10.52v199.284h97.2c35.788.001 64.8 29.012 64.8 64.8v64.801c0 35.788-29.012 64.8-64.8 64.799zM948 696v95.894h-96c-13.347 0-24 10.745-24 24v48c0 13.255 10.653 24 24 24h96v24h-96c-26.694 0-48-21.491-48-48v-48c0-26.51 21.306-48 48-48h72V696h24zM972 767.894h24v144h-24v-144zM1164 767.894v24h-96c-13.255 0-24 10.745-24 24v48c0 13.255 10.745 24 24 24h96v48c0 26.51-21.49 48-48 48h-96v-24h96c13.832-.426 23.312-10.379 24-24v-24h-72c-26.51 0-48-21.491-48-48v-48c0-26.51 21.49-48 48-48h96zM1188 767.894h24v144h-24v-144zM1260 696v36h36v24h-36v155.894h-24V696h24zM1476 696v215.894h-24V696h24z"/><path d="M1428 911.894h-96c-26.51 0-48-21.491-48-48v-48c0-26.51 21.49-48 48-48h48c26.51 0 48 21.49 48 48v96zm-24-96c0-13.255-10.745-24-24-24h-48c-13.255 0-24 10.745-24 24v48c0 13.254 10.745 24 24 24h72v-72z"/></g><path d="M547.243 412.656l-64.004-64.004c-22.666-22.665-22.666-59.414 0-82.08l182.801-182.8v199.284h129.6c17.894.001 32.4 14.506 32.4 32.401v64.8c0 17.894-14.506 32.4-32.4 32.4l-248.397-.001zM24 791.894V696h24v71.894h72c26.51 0 48 21.49 48 48v48c0 26.51-21.49 48-48 48H24v-24h96c13.255 0 24-10.745 24-24v-48c0-13.255-10.745-24-24-24H24zM288 767.894c18.443.151 36.451 11.057 43.745 28.306l-.005.003c2.998 6.152 3.964 12.928 4.26 19.691v4.507l-119.288 49.216c2.623 11.102 12.582 17.002 23.288 18.277h96v24h-96c-20.441-.119-39.669-13.859-45.793-33.558l.056-.023c-1.694-4.619-2.025-9.552-2.263-14.419v-48c0-26.51 21.49-48 48-48h48zm21.492 37.467c-4.06-8.975-12.162-12.478-21.492-13.467h-48c-13.255 0-23.994 10.745-23.994 24v28.059l93.481-38.59.005-.002zM384 696v215.894h-24V696h24zM708 911.894h-96c-26.51 0-48-21.49-48-48v-48c0-26.51 21.49-48 48-48h48c26.51 0 48 21.49 48 48v96zm-24-96c0-13.255-10.745-24-24-24h-48c-13.255 0-24 10.745-24 24v48c0 13.255 10.745 24 24 24h72v-72zM549.472 767.894l-90.426 120H552v24H410.909l90.427-120H408v-24h141.472z"/></svg>

<?xml version="1.0" encoding="UTF-8"?>
<!DOCTYPE svg PUBLIC "-//W3C//DTD SVG 1.1//EN" "http://www.w3.org/Graphics/SVG/1.1/DTD/svg11.dtd">
<svg version="1.1" xmlns="http://www.w3.org/2000/svg" xmlns:xlink="http://www.w3.org/1999/xlink" viewBox="0, 0, 1500, 1008" fill="#fff">
<g fill-opacity="0.5">
<path d="M795.64,445.056 L666.04,445.056 L666.04,445.2 L579.786,445.2 L708.959,574.373 C731.625,597.038 768.373,597.038 791.039,574.372 L1016.759,348.652 C1039.425,325.986 1039.425,289.238 1016.759,266.572 L1006.499,256.312 L1006.5,256.312 L811.56,61.372 L811.559,61.372 L791.039,40.852 C781.146,31.446 769.22,25.561 755.563,24.118 C751.854,24.118 748.135,23.852 744.436,24.118 C731.047,25.082 718.465,31.61 708.959,40.852 L698.44,51.372 L698.44,250.656 L795.64,250.656 C831.428,250.657 860.44,279.668 860.44,315.456 L860.44,380.257 C860.44,416.045 831.428,445.057 795.64,445.056 z"/>
<path d="M948,696 L948,791.894 L852,791.894 C838.653,791.894 828,802.639 828,815.894 L828,863.894 C828,877.149 838.653,887.894 852,887.894 L948,887.894 L948,911.894 L852,911.894 C825.306,911.894 804,890.403 804,863.894 L804,815.894 C804,789.384 825.306,767.894 852,767.894 L924,767.894 L924,696 L948,696 z"/>
<path d="M972,767.894 L996,767.894 L996,911.894 L972,911.894 L972,767.894 z"/>
<path d="M1164,767.894 L1164,791.894 L1068,791.894 C1054.745,791.894 1044,802.639 1044,815.894 L1044,863.894 C1044,877.149 1054.745,887.894 1068,887.894 L1164,887.894 L1164,911.894 L1164,911.894 L1164,935.894 C1164,962.404 1142.51,983.894 1116,983.894 L1020,983.894 L1020,959.894 L1116,959.894 C1129.832,959.468 1139.312,949.515 1140,935.894 L1140,911.894 L1068,911.894 C1041.49,911.894 1020,890.403 1020,863.894 L1020,815.894 C1020,789.384 1041.49,767.894 1068,767.894 L1164,767.894 z"/>
<path d="M1188,767.894 L1212,767.894 L1212,911.894 L1188,911.894 L1188,767.894 z"/>
<path d="M1260,696 L1260,732 L1296,732 L1296,756 L1260,756 L1260,911.894 L1236,911.894 L1236,696 L1260,696 z"/>
<path d="M1476,696 L1476,911.894 L1452,911.894 L1452,696 L1476,696 z"/>
<path d="M1428,911.894 L1332,911.894 C1305.49,911.894 1284,890.403 1284,863.894 L1284,815.894 C1284,789.384 1305.49,767.894 1332,767.894 L1380,767.894 C1406.51,767.894 1428,789.384 1428,815.894 L1428,911.894 z M1404,815.894 C1404,802.639 1393.255,791.894 1380,791.894 L1332,791.894 C1318.745,791.894 1308,802.639 1308,815.894 L1308,863.894 C1308,877.148 1318.745,887.894 1332,887.894 L1404,887.894 L1404,815.894 z"/>
</g>
<g>
<path d="M547.243,412.656 L483.239,348.652 C460.573,325.987 460.573,289.238 483.239,266.572 L666.04,83.772 L666.04,283.056 L795.64,283.056 C813.534,283.057 828.04,297.562 828.04,315.457 L828.04,380.257 C828.04,398.151 813.534,412.657 795.64,412.657 L547.243,412.656 z"/>
<path d="M24,791.894 L24,696 L48,696 L48,767.894 L120,767.894 C146.51,767.894 168,789.384 168,815.894 L168,863.894 C168,890.404 146.51,911.894 120,911.894 L24,911.894 L24,887.894 L120,887.894 C133.255,887.894 144,877.149 144,863.894 L144,815.894 C144,802.639 133.255,791.894 120,791.894 L24,791.894 z"/>
<path d="M288,767.894 C306.443,768.045 324.451,778.951 331.745,796.2 L331.74,796.203 C334.738,802.355 335.704,809.131 336,815.894 L336,820.401 L216.712,869.617 C219.335,880.719 229.294,886.619 240,887.894 L336,887.894 L336,911.894 L240,911.894 C219.559,911.775 200.331,898.035 194.207,878.336 L194.263,878.313 C192.569,873.694 192.238,868.761 192,863.894 L192,815.894 C192,789.384 213.49,767.894 240,767.894 L288,767.894 z M309.492,805.361 C305.432,796.386 297.33,792.883 288,791.894 L240,791.894 C226.745,791.894 216.006,802.639 216.006,815.894 L216.006,843.857 L216.006,843.857 L216.006,843.953 L309.487,805.363 L309.492,805.361 z"/>
<path d="M384,696 L384,911.894 L360,911.894 L360,696 L384,696 z"/>
<path d="M708,911.894 L612,911.894 C585.49,911.894 564,890.404 564,863.894 L564,815.894 C564,789.384 585.49,767.894 612,767.894 L660,767.894 C686.51,767.894 708,789.384 708,815.894 L708,911.894 z M684,815.894 C684,802.639 673.255,791.894 660,791.894 L612,791.894 C598.745,791.894 588,802.639 588,815.894 L588,863.894 C588,877.149 598.745,887.894 612,887.894 L684,887.894 L684,815.894 z"/>
<path d="M549.472,767.894 L459.046,887.894 L552,887.894 L552,911.894 L410.909,911.894 L501.336,791.894 L408,791.894 L408,767.894 L549.472,767.894 z"/>
</g>
</svg>
